icons/svg/paintbrush.svg

<svg width="24" height="24" viewBox="0 0 24 24" fill="none" xmlns="http://www.w3.org/2000/svg">
<path d="M5.31944 5.75C5.31944 4.09315 6.66259 2.75 8.31944 2.75H15.6806C17.3374 2.75 18.6806 4.09315 18.6806 5.75V12H5.31944V5.75Z" stroke="currentColor" stroke-width="1.5" stroke-linecap="round" stroke-linejoin="round"/>
<path d="M5.31944 12V11.25C4.90523 11.25 4.56944 11.5858 4.56944 12H5.31944ZM18.6806 12H19.4306C19.4306 11.5858 19.0948 11.25 18.6806 11.25V12ZM10.2014 16.1111H10.9514C10.9514 15.6969 10.6156 15.3611 10.2014 15.3611V16.1111ZM13.7986 16.1111V15.3611C13.3844 15.3611 13.0486 15.6969 13.0486 16.1111H13.7986ZM5.31944 12.75H18.6806V11.25H5.31944V12.75ZM6.06944 14.6111V12H4.56944V14.6111H6.06944ZM6.81944 15.3611C6.40523 15.3611 6.06944 15.0253 6.06944 14.6111H4.56944C4.56944 15.8538 5.5768 16.8611 6.81944 16.8611V15.3611ZM10.2014 15.3611H6.81944V16.8611H10.2014V15.3611ZM10.9514 19.4514V16.1111H9.45139V19.4514H10.9514ZM12 20.5C11.4209 20.5 10.9514 20.0305 10.9514 19.4514H9.45139C9.45139 20.8589 10.5924 22 12 22V20.5ZM13.0486 19.4514C13.0486 20.0305 12.5791 20.5 12 20.5V22C13.4076 22 14.5486 20.8589 14.5486 19.4514H13.0486ZM13.0486 16.1111V19.4514H14.5486V16.1111H13.0486ZM17.1806 15.3611H13.7986V16.8611H17.1806V15.3611ZM17.9306 14.6111C17.9306 15.0253 17.5948 15.3611 17.1806 15.3611V16.8611C18.4232 16.8611 19.4306 15.8538 19.4306 14.6111H17.9306ZM17.9306 12V14.6111H19.4306V12H17.9306Z" fill="currentColor"/>
<path d="M15.5 2.75L15.5 6.5" stroke="currentColor" stroke-width="1.5" stroke-linecap="round" stroke-linejoin="round"/>
<path d="M12.5 2.75L12.5 5.25" stroke="currentColor" stroke-width="1.5" stroke-linecap="round" stroke-linejoin="round"/>
</svg>

<svg xmlns="http://www.w3.org/2000/svg" width="24" height="24" fill="none" viewBox="0 0 24 24"><path stroke="currentColor" stroke-linecap="round" stroke-linejoin="round" stroke-width="1.5" d="M5.32 5.75a3 3 0 0 1 3-3h7.36a3 3 0 0 1 3 3V12H5.32z"/><path fill="currentColor" d="M5.32 12v-.75a.75.75 0 0 0-.75.75zm13.36 0h.75a.75.75 0 0 0-.75-.75zm-8.479 4.111h.75a.75.75 0 0 0-.75-.75zm3.598 0v-.75a.75.75 0 0 0-.75.75zm-8.48-3.361h13.362v-1.5H5.319zm.75 1.861V12h-1.5v2.611zm.75.75a.75.75 0 0 1-.75-.75h-1.5a2.25 2.25 0 0 0 2.25 2.25zm3.382 0H6.82v1.5h3.382zm.75 4.09v-3.34h-1.5v3.34zM12 20.5c-.58 0-1.049-.47-1.049-1.049h-1.5A2.55 2.55 0 0 0 12 22zm1.049-1.049c0 .58-.47 1.049-1.049 1.049V22a2.55 2.55 0 0 0 2.549-2.549zm0-3.34v3.34h1.5v-3.34zm4.132-.75h-3.382v1.5h3.382zm.75-.75a.75.75 0 0 1-.75.75v1.5a2.25 2.25 0 0 0 2.25-2.25zm0-2.611v2.611h1.5V12z"/><path stroke="currentColor" stroke-linecap="round" stroke-linejoin="round" stroke-width="1.5" d="M15.5 2.75V6.5m-3-3.75v2.5"/></svg>
